X: 372
M: C|
L: 1/8
K: C
V: 1
ECce dDDe | fedc BGGF | ECc_B AFfe | dBGB c2c :|
f |\
ec (a/g/f/e/) afdf | ecAc BdGf | ec (a/g/f/e/) afdf | ecdB c2~cf |
ec (a/g/f/e/) a>fdf | ecAc BdGF | EcGE FADf | ecdB c2c |]
V: 2 clef=bass middle=d
z | c2c2 B2G2 | c2c2 G2G2 | c2e2 f2F2 | g2G2 c2c :|
z | c2e2 f2g2 | c2c'2 g2G2 | c2e2 f2g2 | c2G2 c2c2 |
    c2e2 f2g2 | e2^f2 g2G2 | c2e2 f2b2 | c'2g2 c2c |]


